X:51
T:Roly Gentle
M:3/4
L:1/8
R:waltz
D:The Kathryn Tickell Band by Kathryn Tickell Band
K:EDOR %Transposed from DDOR
E2 EF GB|g2 gf ed|B2 BA Bd|F2 FE FG|
E2 EG Be|^d2 dB AF|1B2 eB AF:|2E2 EB c^d||
e2 ef ge|fd B2 BA|G2 GFGB|FB GB FB|
e2 ef ge|f^d B2 c2|d2 dB de|fe dB AF|
e2 ef ge|fd B2 BA|G2 GF GB|FB GB FB|
e2 ef gb|ag fe ^dB|d2 dB de|fe dB AF||
